X:1
T:Title
%%score 1 { ( 2 5 6 ) | ( 3 4 7 ) }
L:1/8
Q:1/4=87
M:6/8
K:C
V:1 treble nm="Akkordion"
V:2 treble nm="Grand Piano"
V:5 treble 
V:6 treble 
V:3 bass 
V:4 bass 
V:7 bass 
V:1
 z6 | z6 | z6 | z6 | z6 | z6 | z6 | z6 | z6 | z6 | z6 | z6 | z6 | z6 | z6 | z6 | c2 c c3 | %17
 B2 B B3 | A3 c2 A | G6 | c2 c c3 | B2 B B3 | A2 B c2 A | d6 | c2 c c3 | B2 B B3 | A2 B c2 A | G6 | %28
 A2 A A2 A | d2 d f3 | %30
[M:7/8] e2 c d [dg]3[Q:1/4=86][Q:1/4=84][Q:1/4=83][Q:1/4=82][Q:1/4=80][Q:1/4=79][Q:1/4=77][Q:1/4=76][Q:1/4=75][Q:1/4=73][Q:1/4=72][Q:1/4=71][Q:1/4=69][Q:1/4=68][Q:1/4=67] | %31
[M:3/4] c6 |] %32
V:2
 [Ec][EB][EA] .[CEG]2 [CEB] | .c3 z3 | [EG][EA][EB] [Ec]2 [EA] | c3 B3 | dBA GAB | dBA G3 | %6
w: E..~Edwin~Young * * * *||||||
 GA_B =B2 _B | [_E^FA]3 [=EG]3 | [Ec][EB][EA] [EG][EA][EB] | .c3 z3 | eee efe | [Fd]6 | %12
w: ||||||
 [^Fc][Fc][Fc] [Fc][FB][FA] | cBA G3 | ^F[FA][EB] [Fc][FB][FA] | d6[K:bass] | %16
w: ||||
 [cec']2 [cec'] [cec']3 | [Begb]2 [Begb] [Begb]3 | [Afa]3 [cac']ba | [Geg]6[K:bass] | %20
w: ||||
 [cec']2 [cec'] [cec']3 | [Begb]2 [Begb] [Begb]3 | [A^fa]2 [Bfb] [cfc'][fb][fa] | %23
w: |||
 [fad']3 [gbd'g']3 | [cec']2 [cec'] [cec']3 | [Begc']2 [Begc'] [Begc']3 | [Afa]2 [Bgb] [cac']ba | %27
w: ||||
 [Geg]6 | [Acfa]2 [fa] [_Bcga]3 | [dfad']2 [ad'] [fd'f']3 | %30
w: |||
[M:7/8] [ec'e']2 [ceac'] [dfbd'] [bd']3 |[M:3/4] [cegc']6 |] %32
w: ||
V:3
 [C,G,][C,G,][C,G,] z AC, | [C,G,]2 [C,C] [C,C]3 | [C,C][C,C][C,C] [C,G,]2 [C,C] | %3
 [G,DF]3 [G,DF]3 | [G,B,F][G,DF][G,CF] [G,F]-[G,CF][G,DF] | [G,F]-[G,DF][G,CF] [F,B,F]3 | %6
 [G,B,F][G,CF][G,^CF] [G,DF]2 [G,CF] | C,3 C,3 | [C,G,][C,G,][C,G,] [C,C][C,C][C,C] | %9
 [C,G,]2 [C,C] [C,C]3 | [A,^CG][A,CG][A,CG] [A,CG][A,CA][A,CG] | z3 A,3 | %12
 [_E,A,][E,A,][E,A,] [E,A,][E,B,][E,C] | [^F,A,_E][F,B,E][F,CE] [G,C=E]3 | %14
 [D,CD][D,C][D,B,] [D,A,][D,D][D,C] | [G,,G,F-]3 F3 | [C,,C,]2 [G,CE] [G,CE]3 | %17
 [C,,C,]2 [G,CE] [G,CE]3 | [F,,F,]3[K:treble] z [Bg][Af] | [C,C]2 A,, G,,E,,D,, | %20
 C,,2 [G,CE] [G,CE]3 | [C,,C,]2 [G,CE] [G,CE]3 | z3[K:treble] [A,CD^F]3 | z/ B,/- B,2 [G,B,DF]3 | %24
 [C,,C,]2 [G,CE] [G,CE]3 | [E,,E,]2 [^G,B,D] [G,B,D]3 | [F,,F,]2[K:treble] [A,CF] z [Bg][Af] | %27
 [C,,C,]2 [G,C] .[G,C]3 | z2[K:treble] [Ac][K:bass] [E,,E,]3 | %29
 z2[K:treble] [df][K:bass] [A,,A,]2 [^G,,^G,] |[M:7/8] [G,,G,]2 [G,CE] z [df]3 | %31
[M:3/4] [C,,C,]3 .C,,3 |] %32
V:4
 z3 .C,3 | x6 | x6 | x6 | z3 .B,3 | .B,3 z3 | x6 | x6 | x6 | x6 | x6 | D,6 | x6 | x6 | x6 | %15
 z3 .[G,,G,]3 | x6 | x6 | z3[K:treble] [A,CF]3 | x6 | x6 | x6 | [D,,D,]2[K:treble] [A,CD^F] z BA | %23
 z/4 G,3/4- G,2 z3 | x6 | x6 | z3[K:treble] [A,CF]3 | x6 | [F,,F,]3[K:treble][K:bass] z3 | %29
 [D,,D,]3[K:treble][K:bass] z3 |[M:7/8] z z2 [G,,G,]- [G,,G,]3 |[M:3/4] x6 |] %32
V:5
 x6 | E-[EB][EA] [EG]3 | x6 | x6 | x6 | x6 | x6 | x6 | x6 | E-[EB][EA] [EG]3 | x6 | D3 z3 | x6 | %13
 x6 | x6 | z[K:bass] B,2 .B,3 | x6 | x6 | x6 | z2[K:bass] A, G,E,D, | x6 | x6 | x6 | x6 | x6 | x6 | %26
 x6 | z2 E .E3 | x6 | x6 |[M:7/8] x7 |[M:3/4] x6 |] %32
V:6
 x6 | x6 | x6 | x6 | x6 | x6 | x6 | x6 | x6 | x6 | x6 | x6 | x6 | x6 | x6 | z2[K:bass] A, z F,E, | %16
 x6 | x6 | x6 | x2[K:bass] x4 | x6 | x6 | x6 | x6 | x6 | x6 | x6 | x6 | x6 | x6 |[M:7/8] x7 | %31
[M:3/4] x6 |] %32
V:7
 x6 | x6 | x6 | x6 | x6 | x6 | x6 | x6 | x6 | x6 | x6 | x6 | x6 | x6 | x6 | B,B,,A,, z F,,D,, | %16
 x6 | x6 | x3[K:treble] x3 | x6 | x6 | x6 | x2[K:treble] x4 | B,,3 z3 | x6 | x6 | x2[K:treble] x4 | %27
 x6 | x2[K:treble] x[K:bass] x3 | x2[K:treble] x[K:bass] x3 |[M:7/8] x7 |[M:3/4] x6 |] %32

